X:217
T:
R:polska
S:Ur en handskriven notbok, tillhörig skolläraren S. P. Dalström, Hejde.
O:Gotland, Hejde
M:3/4
L:1/16
K:F
Lc4 Lf4 La4|c'2c'2 d'c'=bc' a4|F2FA c2cA B2BA|
c2cA B2Bc A2c2|f2fg a2af b2bg|a2af ageg fcAc|
F2FA c2cA B2BG|c2cA B2Bc A2c2|f2fg a2f2d2b2|agfe g4 f4::
e3f g2ec gecA|F2Ac f2cA F2f2|e3f gece gecA|F2ff f2cA F2f2|
f3a gfed d2c2|=Bcde d4 c3_B|ABcd efga b2d'2|ac'eg g4 f4:|

